X: 27563
T: Money In Both Pockets
R: jig
M: 6/8
K: Dmajor
|:A|d2 F FEF|ABA AGF|d2 F FEF|ABA gfe|
d2 F FEF|ABA AGF|EFE EFA|BcB B2:|
|:c|dfa afd|cea ecA|dfa afd|g3 f2 g|
agf bag|agf ede|fdB AFA|BcB B2:|
|:A|dcd dAF|ABA AGF|dcd dAF|Aaf gfe|
dcd dAF|ABA AGF|E2 E EFA|BcB B2:|
|:c|:dcd afd|cea ecA|dcd afd|gfg f2 g|
faf gbg|faf ede|fdB AFA|BcB B2:|

